X:5063
T:Peggy \& Nancy
O:england
R:Triple Hornpipe
M:3/2
L:1/8
K:G
g3e f3d gedc | B2D4 G2B2d2 | \
c3A B3G cAGF | G2D4 G2B2d2:|
|:gedc defd gedc | B2D4 G2B2d2 |\
cAGF GABG cAGF | G2D4 G2B2d2 :|
|:gab2 agf2 gedc | B2D4 G2B2d2 |\
cde2 dcB2 cAGF | G2D4 G2B2d2 :|
|:gece afdf gedc | B2D4 G2B2d2 |\
cAFA dBGB cAGF | G2D4 G2B2d2 :|


